icons/lines/book-saved.svg

<svg xmlns="http://www.w3.org/2000/svg" width="24" height="24" viewBox="0 0 24 24" fill="none" stroke="currentColor" stroke-width="2" stroke-linecap="round" stroke-linejoin="round" >
  <path d="M22 4.67001V16.74C22 17.7 21.22 18.6 20.26 18.72L19.93 18.76C17.75 19.05 14.39 20.16 12.47 21.22C12.21 21.37 11.78 21.37 11.51 21.22L11.47 21.2C9.54997 20.15 6.20003 19.05 4.03003 18.76L3.73999 18.72C2.77999 18.6 2 17.7 2 16.74V4.66C2 3.47 2.96997 2.57001 4.15997 2.67001C6.25997 2.84001 9.43997 3.90003 11.22 5.01003L11.47 5.16C11.76 5.34 12.24 5.34 12.53 5.16L12.7 5.05001C13.33 4.66001 14.13 4.27001 15 3.92001V8.00002L17 6.67001L19 8.00002V2.78005C19.27 2.73005 19.53 2.70002 19.77 2.68002H19.83C21.02 2.58002 22 3.47001 22 4.67001Z"/>
  <path d="M12 5.48999V20.49"/>
  <path d="M19 2.78003V8L17 6.66998L15 8V3.91998C16.31 3.39998 17.77 2.98003 19 2.78003Z"/>
  </svg>

<svg xmlns="http://www.w3.org/2000/svg" width="24" height="24" viewBox="0 0 24 24" fill="none" stroke="currentColor" stroke-width="2" stroke-linecap="round" stroke-linejoin="round">
  <path d="M12 5.49v15" />
  <path d="m15 8 2-1.33L19 8V2.78c-1.23.2-2.69.62-4 1.14z" />
  <path d="M19 2.78a8 8 0 0 1 .77-.1h.06A2 2 0 0 1 22 4.67v12.07c0 .96-.78 1.86-1.74 1.98l-.33.04c-2.18.29-5.54 1.4-7.46 2.46a1 1 0 0 1-.96 0c-1.96-1.07-5.31-2.17-7.48-2.46l-.29-.04C2.78 18.6 2 17.7 2 16.74V4.66a2 2 0 0 1 2.16-1.99c2.1.17 5.28 1.23 7.06 2.34l.25.15c.29.18.77.18 1.06 0l.17-.11c.63-.39 1.43-.78 2.3-1.13" />
</svg>
